assets/Globe showing americas/Flat/globe_showing_americas_flat.svg

<svg width="32" height="32" viewBox="0 0 32 32" fill="none" xmlns="http://www.w3.org/2000/svg">
<path d="M16 30C23.732 30 30 23.732 30 16C30 8.26801 23.732 2 16 2C8.26801 2 2 8.26801 2 16C2 23.732 8.26801 30 16 30Z" fill="#0074BA"/>
<path d="M4.50964 7.99964L4.51005 8H7.12005C8.16005 8 9.00005 8.84 9.00005 9.88V10.85C9.00005 11.59 9.29005 12.31 9.80005 12.85L10.7401 13.84C10.9601 14.07 11.0801 14.38 11.0801 14.7V15.17C11.0801 15.68 11.4001 16.13 11.8801 16.29L13.7501 16.93C13.8578 16.9704 13.9747 16.9972 14.0915 17.0104L16.8801 17.9399C16.9601 17.9799 17.0501 17.9999 17.1401 17.9999H18.5001C18.7801 17.9999 19.0001 18.2199 19.0001 18.4999V18.6199C19.0001 18.8399 18.8201 19.0099 18.6101 19.0099C18.2701 19.0099 18.0001 19.2799 18.0001 19.6199V21.6699C18.0001 22.3999 18.6001 22.9999 19.3301 22.9999C19.7001 22.9999 20.0001 23.2999 20.0001 23.6699V27.3199C20.0001 27.6999 20.3001 27.9999 20.6801 27.9999C20.8801 27.9999 21.0701 27.9099 21.2001 27.7599L25.7201 22.3299C25.8901 22.1199 25.9901 21.8499 25.9901 21.5699V21.1799C25.9901 20.5199 25.4601 19.9899 24.8101 19.9899H24.5701C24.2501 19.9899 23.9901 19.7299 23.9901 19.4099V18.8899C23.9901 18.3399 23.6801 17.8399 23.1901 17.5899L22.7001 17.3499C22.2301 17.1199 21.7201 16.9999 21.2001 16.9999H18.5801C18.2501 16.9999 17.9901 16.7299 17.9901 16.4099C17.9901 16.1899 17.8101 15.9999 17.5801 15.9999H17.4101C17.1901 15.9999 17.0001 15.8199 17.0001 15.5899V15.4999C17.0001 15.2199 16.7801 14.9999 16.5001 14.9999C16.2201 14.9999 16.0001 15.2199 16.0001 15.4999V15.5899C16.0001 15.8699 15.7601 15.9999 15.4801 15.9999H15.0001L14.9796 16.02H14.8701C14.3901 16 14.0001 15.61 14.0001 15.13V14.26C14.0001 13.56 14.5601 13 15.2601 13H16.1901C16.6401 13 17.0001 13.36 17.0001 13.81C17.0001 13.91 17.0801 14 17.1901 14H17.4201C17.7401 14 18.0001 13.75 18.0001 13.43C18.0001 13.15 18.0701 12.88 18.2201 12.64L20.8601 8.24C20.9401 8.09 21.1101 8 21.2801 8H22.5001C22.7801 8 23.0001 7.78 23.0001 7.5C23.0001 7.22 22.7801 7 22.5001 7H21.2101C21.0801 7 20.9501 6.95 20.8601 6.85L20.2701 6.26C20.0901 6.09 20.0101 5.85 20.0001 5.61C19.9901 5.27 19.7101 5 19.3701 5H19.1901C19.0701 5 18.9601 4.95 18.8801 4.87L18.7701 4.76C18.4801 4.48 18.6701 4 19.0701 4H20.5101C20.8801 4 21.2501 4.13 21.5401 4.36L25.3701 7.42C25.8301 7.79 26.4001 8 27.0001 8L27.4922 8.00212C25.9406 5.77681 23.7592 4.02332 21.2064 3H15.9101C15.3501 3 14.8401 3.31 14.5901 3.81L14.1301 4.72C14.0501 4.89 13.8801 5 13.6901 5H13.5201C13.2501 5 12.9901 4.79 13.0001 4.51C13.0101 4.23 12.7801 4 12.5001 4H10.7501C10.339 4 9.93748 3.82757 9.6487 3.5202C7.58886 4.57062 5.82359 6.11602 4.50964 7.99964ZM19.0001 7.5C19.0001 7.78 18.7801 8 18.5001 8C18.2201 8 18.0001 8.22 18.0001 8.5C18.0001 8.78 17.7801 9 17.5001 9C17.2201 9 17.0001 8.78 17.0001 8.5C17.0001 8.22 16.7801 8 16.5001 8H15.5001C15.2201 8 15.0001 7.78 15.0001 7.5C15.0001 7.22 15.2201 7 15.5001 7H16.5001C16.7801 7 17.0001 6.78 17.0001 6.5C17.0001 6.22 17.2201 6 17.5001 6C17.7801 6 18.0001 6.22 18.0001 6.5C18.0001 6.78 18.2201 7 18.5001 7C18.7801 7 19.0001 7.22 19.0001 7.5Z" fill="#00D26A"/>
</svg>

<svg xmlns="http://www.w3.org/2000/svg" width="32" height="32" fill="none"><path fill="#0074BA" d="M16 30c7.732 0 14-6.268 14-14S23.732 2 16 2 2 8.268 2 16s6.268 14 14 14Z"/><path fill="#00D26A" d="M4.51 8h2.61C8.16 8 9 8.84 9 9.88v.97c0 .74.29 1.46.8 2l.94.99c.22.23.34.54.34.86v.47c0 .51.32.96.8 1.12l1.87.64c.108.04.225.067.341.08l2.79.93c.08.04.17.06.26.06h1.36c.28 0 .5.22.5.5v.12c0 .22-.18.39-.39.39-.34 0-.61.27-.61.61v2.05c0 .73.6 1.33 1.33 1.33.37 0 .67.3.67.67v3.65c0 .38.3.68.68.68.2 0 .39-.09.52-.24l4.52-5.43c.17-.21.27-.48.27-.76v-.39c0-.66-.53-1.19-1.18-1.19h-.24a.58.58 0 0 1-.58-.58v-.52c0-.55-.31-1.05-.8-1.3l-.49-.24c-.47-.23-.98-.35-1.5-.35h-2.62c-.33 0-.59-.27-.59-.59 0-.22-.18-.41-.41-.41h-.17c-.22 0-.41-.18-.41-.41v-.09c0-.28-.22-.5-.5-.5s-.5.22-.5.5v.09c0 .28-.24.41-.52.41H15l-.021.02h-.11a.901.901 0 0 1-.87-.89v-.87c0-.7.56-1.26 1.26-1.26h.93c.45 0 .81.36.81.81 0 .1.08.19.19.19h.23c.32 0 .58-.25.58-.57 0-.28.07-.55.22-.79l2.64-4.4c.08-.15.25-.24.42-.24h1.22c.28 0 .5-.22.5-.5s-.22-.5-.5-.5h-1.29a.47.47 0 0 1-.35-.15l-.59-.59a.933.933 0 0 1-.27-.65.63.63 0 0 0-.63-.61h-.18c-.12 0-.23-.05-.31-.13l-.11-.11c-.29-.28-.1-.76.3-.76h1.44c.37 0 .74.13 1.03.36l3.83 3.06c.46.37 1.03.58 1.63.58l.492.002A14.047 14.047 0 0 0 21.206 3H15.91c-.56 0-1.07.31-1.32.81l-.46.91c-.08.17-.25.28-.44.28h-.17c-.27 0-.53-.21-.52-.49a.497.497 0 0 0-.5-.51h-1.75c-.411 0-.813-.172-1.101-.48A14.064 14.064 0 0 0 4.509 8ZM19 7.5c0 .28-.22.5-.5.5s-.5.22-.5.5-.22.5-.5.5-.5-.22-.5-.5-.22-.5-.5-.5h-1c-.28 0-.5-.22-.5-.5s.22-.5.5-.5h1c.28 0 .5-.22.5-.5s.22-.5.5-.5.5.22.5.5.22.5.5.5.5.22.5.5Z"/></svg>
